X:1
T:Miss Erskine of Alva
M:C
L:1/8
Q:80
C:Trad. arr. M. Grey
S:Reel
K:HP
|: a | \
{ef}eA{gAGAG}A2{g}ce{A}eg | \
{a}fd{gf}g2{a}B{d}G{e}Gf | \
{gef}eA{gAGAG}A2{g}ce{A}eg |
{a}fdgf{gef}e2{AGAG}A:| [ | \
g | \
ae{g}fd{g}ce{g}e{A}e | \
{g}fd{gf}g2{a}B{d}G{e}Gg |
ae{g}fd{g}c{d}A{g}ce | \
{g}dg{a}Bd{gef}e2{AGAG}Agae{g}fd{g}ce{g}e{A}e | \
{g}dBgd{g}BG{g}Bd |
{g}Ac{g}c{G}c{a}gaAe | \
{g}dg{a}Bd{gef}e2{AGAG}A|]
